images/5284469.svg

<?xml version="1.0" encoding="UTF-8"?>
<svg xmlns="http://www.w3.org/2000/svg" xmlns:xlink="http://www.w3.org/1999/xlink" width="300pt" height="300pt" viewBox="0 0 300 300" version="1.1">
<defs>
<g>
<symbol overflow="visible" id="glyph0-0">
<path style="stroke:none;" d="M 0.796875 2.828125 L 0.796875 -11.28125 L 8.796875 -11.28125 L 8.796875 2.828125 Z M 1.703125 1.9375 L 7.90625 1.9375 L 7.90625 -10.390625 L 1.703125 -10.390625 Z M 1.703125 1.9375 "/>
</symbol>
<symbol overflow="visible" id="glyph0-1">
<path style="stroke:none;" d="M 10.3125 -10.765625 L 10.3125 -9.109375 C 9.78125 -9.597656 9.210938 -9.960938 8.609375 -10.203125 C 8.003906 -10.453125 7.363281 -10.578125 6.6875 -10.578125 C 5.351562 -10.578125 4.332031 -10.171875 3.625 -9.359375 C 2.914062 -8.546875 2.5625 -7.367188 2.5625 -5.828125 C 2.5625 -4.285156 2.914062 -3.109375 3.625 -2.296875 C 4.332031 -1.484375 5.351562 -1.078125 6.6875 -1.078125 C 7.363281 -1.078125 8.003906 -1.195312 8.609375 -1.4375 C 9.210938 -1.6875 9.78125 -2.054688 10.3125 -2.546875 L 10.3125 -0.90625 C 9.757812 -0.53125 9.171875 -0.242188 8.546875 -0.046875 C 7.929688 0.140625 7.28125 0.234375 6.59375 0.234375 C 4.832031 0.234375 3.441406 -0.304688 2.421875 -1.390625 C 1.410156 -2.472656 0.90625 -3.953125 0.90625 -5.828125 C 0.90625 -7.703125 1.410156 -9.175781 2.421875 -10.25 C 3.441406 -11.332031 4.832031 -11.875 6.59375 -11.875 C 7.289062 -11.875 7.945312 -11.78125 8.5625 -11.59375 C 9.1875 -11.414062 9.769531 -11.140625 10.3125 -10.765625 Z M 10.3125 -10.765625 "/>
</symbol>
<symbol overflow="visible" id="glyph0-2">
<path style="stroke:none;" d="M 1.515625 -12.15625 L 2.953125 -12.15625 L 2.953125 0 L 1.515625 0 Z M 1.515625 -12.15625 "/>
</symbol>
</g>
</defs>
<g id="surface36865">
<rect x="0" y="0" width="300" height="300" style="fill:rgb(100%,100%,100%);fill-opacity:1;stroke:none;"/>
<path style="fill:none;stroke-width:1.2;stroke-linecap:butt;stroke-linejoin:miter;stroke:rgb(0%,0%,0%);stroke-opacity:1;stroke-miterlimit:10;" d="M 185.328125 212.964844 L 165.101562 180.5 "/>
<path style="fill:none;stroke-width:1.2;stroke-linecap:butt;stroke-linejoin:miter;stroke:rgb(0%,0%,0%);stroke-opacity:1;stroke-miterlimit:10;" d="M 177.691406 217.722656 L 157.460938 185.261719 "/>
<path style="fill:none;stroke-width:1.2;stroke-linecap:butt;stroke-linejoin:miter;stroke:rgb(0%,0%,0%);stroke-opacity:1;stroke-miterlimit:10;" d="M 161.28125 182.878906 L 175.65625 147.433594 "/>
<path style="fill:none;stroke-width:1.2;stroke-linecap:butt;stroke-linejoin:miter;stroke:rgb(0%,0%,0%);stroke-opacity:1;stroke-miterlimit:10;" d="M 123.128906 180.164062 L 161.28125 182.878906 "/>
<path style="fill:none;stroke-width:1.2;stroke-linecap:butt;stroke-linejoin:miter;stroke:rgb(0%,0%,0%);stroke-opacity:1;stroke-miterlimit:10;" d="M 175.65625 147.433594 L 146.386719 122.808594 "/>
<path style="fill:none;stroke-width:1.2;stroke-linecap:butt;stroke-linejoin:miter;stroke:rgb(0%,0%,0%);stroke-opacity:1;stroke-miterlimit:10;" d="M 175.65625 147.433594 L 197.085938 115.75 "/>
<path style="fill:none;stroke-width:1.2;stroke-linecap:butt;stroke-linejoin:miter;stroke:rgb(0%,0%,0%);stroke-opacity:1;stroke-miterlimit:10;" d="M 175.65625 147.433594 L 209.40625 165.433594 "/>
<path style="fill:none;stroke-width:1.2;stroke-linecap:butt;stroke-linejoin:miter;stroke:rgb(0%,0%,0%);stroke-opacity:1;stroke-miterlimit:10;" d="M 146.386719 122.808594 L 108.230469 120.09375 "/>
<path style="fill:none;stroke-width:1.2;stroke-linecap:butt;stroke-linejoin:miter;stroke:rgb(0%,0%,0%);stroke-opacity:1;stroke-miterlimit:10;" d="M 146.386719 122.808594 L 147.742188 103.734375 "/>
<path style="fill:none;stroke-width:1.2;stroke-linecap:butt;stroke-linejoin:miter;stroke:rgb(0%,80%,0%);stroke-opacity:1;stroke-miterlimit:10;" d="M 147.742188 103.734375 L 149.101562 84.65625 "/>
<path style="fill:none;stroke-width:1.2;stroke-linecap:butt;stroke-linejoin:miter;stroke:rgb(0%,0%,0%);stroke-opacity:1;stroke-miterlimit:10;" d="M 113.921875 143.039062 L 146.386719 122.808594 "/>
<path style="fill:none;stroke-width:1.2;stroke-linecap:butt;stroke-linejoin:miter;stroke:rgb(0%,0%,0%);stroke-opacity:1;stroke-miterlimit:10;" d="M 108.230469 120.09375 L 93.859375 155.539062 "/>
<path style="fill:none;stroke-width:1.2;stroke-linecap:butt;stroke-linejoin:miter;stroke:rgb(0%,0%,0%);stroke-opacity:1;stroke-miterlimit:10;" d="M 108.230469 120.09375 L 100.171875 102.75 "/>
<path style="fill:none;stroke-width:1.2;stroke-linecap:butt;stroke-linejoin:miter;stroke:rgb(0%,80%,0%);stroke-opacity:1;stroke-miterlimit:10;" d="M 100.171875 102.75 L 92.109375 85.40625 "/>
<path style="fill:none;stroke-width:1.2;stroke-linecap:butt;stroke-linejoin:miter;stroke:rgb(0%,0%,0%);stroke-opacity:1;stroke-miterlimit:10;" d="M 93.859375 155.539062 L 123.128906 180.164062 "/>
<path style="fill:none;stroke-width:1.2;stroke-linecap:butt;stroke-linejoin:miter;stroke:rgb(0%,0%,0%);stroke-opacity:1;stroke-miterlimit:10;" d="M 93.859375 155.539062 L 75.996094 162.371094 "/>
<path style="fill:none;stroke-width:1.2;stroke-linecap:butt;stroke-linejoin:miter;stroke:rgb(0%,80%,0%);stroke-opacity:1;stroke-miterlimit:10;" d="M 75.996094 162.371094 L 58.132812 169.203125 "/>
<path style="fill:none;stroke-width:1.2;stroke-linecap:butt;stroke-linejoin:miter;stroke:rgb(0%,0%,0%);stroke-opacity:1;stroke-miterlimit:10;" d="M 123.128906 180.164062 L 113.921875 143.039062 "/>
<path style="fill:none;stroke-width:1.2;stroke-linecap:butt;stroke-linejoin:miter;stroke:rgb(0%,0%,0%);stroke-opacity:1;stroke-miterlimit:10;" d="M 123.128906 180.164062 L 110.816406 194.796875 "/>
<path style="fill:none;stroke-width:1.2;stroke-linecap:butt;stroke-linejoin:miter;stroke:rgb(0%,80%,0%);stroke-opacity:1;stroke-miterlimit:10;" d="M 110.816406 194.796875 L 98.503906 209.433594 "/>
<path style="fill:none;stroke-width:1.2;stroke-linecap:butt;stroke-linejoin:miter;stroke:rgb(0%,0%,0%);stroke-opacity:1;stroke-miterlimit:10;" d="M 113.921875 143.039062 L 94.800781 142.679688 "/>
<path style="fill:none;stroke-width:1.2;stroke-linecap:butt;stroke-linejoin:miter;stroke:rgb(0%,80%,0%);stroke-opacity:1;stroke-miterlimit:10;" d="M 94.800781 142.679688 L 75.679688 142.320312 "/>
<path style="fill:none;stroke-width:1.2;stroke-linecap:butt;stroke-linejoin:miter;stroke:rgb(0%,0%,0%);stroke-opacity:1;stroke-miterlimit:10;" d="M 113.921875 143.039062 L 99.949219 129.980469 "/>
<path style="fill:none;stroke-width:1.2;stroke-linecap:butt;stroke-linejoin:miter;stroke:rgb(0%,80%,0%);stroke-opacity:1;stroke-miterlimit:10;" d="M 99.949219 129.980469 L 85.976562 116.917969 "/>
<path style=" stroke:none;fill-rule:nonzero;fill:rgb(100%,100%,100%);fill-opacity:1;" d="M 59.679688 132.820312 L 75.679688 132.820312 L 75.679688 151.820312 L 59.679688 151.820312 Z M 59.679688 132.820312 "/>
<g style="fill:rgb(0%,80%,0%);fill-opacity:1;">
  <use xlink:href="#glyph0-1" x="59.679688" y="147.671875"/>
  <use xlink:href="#glyph0-2" x="70.851562" y="147.671875"/>
</g>
<path style=" stroke:none;fill-rule:nonzero;fill:rgb(100%,100%,100%);fill-opacity:1;" d="M 69.976562 107.417969 L 85.976562 107.417969 L 85.976562 126.417969 L 69.976562 126.417969 Z M 69.976562 107.417969 "/>
<g style="fill:rgb(0%,80%,0%);fill-opacity:1;">
  <use xlink:href="#glyph0-1" x="69.976562" y="122.269531"/>
  <use xlink:href="#glyph0-2" x="81.148438" y="122.269531"/>
</g>
<path style=" stroke:none;fill-rule:nonzero;fill:rgb(100%,100%,100%);fill-opacity:1;" d="M 82.503906 199.933594 L 98.503906 199.933594 L 98.503906 218.933594 L 82.503906 218.933594 Z M 82.503906 199.933594 "/>
<g style="fill:rgb(0%,80%,0%);fill-opacity:1;">
  <use xlink:href="#glyph0-1" x="82.503906" y="214.785156"/>
  <use xlink:href="#glyph0-2" x="93.675781" y="214.785156"/>
</g>
<path style=" stroke:none;fill-rule:nonzero;fill:rgb(100%,100%,100%);fill-opacity:1;" d="M 42.132812 159.703125 L 58.132812 159.703125 L 58.132812 178.703125 L 42.132812 178.703125 Z M 42.132812 159.703125 "/>
<g style="fill:rgb(0%,80%,0%);fill-opacity:1;">
  <use xlink:href="#glyph0-1" x="42.132812" y="174.554688"/>
  <use xlink:href="#glyph0-2" x="53.304688" y="174.554688"/>
</g>
<path style=" stroke:none;fill-rule:nonzero;fill:rgb(100%,100%,100%);fill-opacity:1;" d="M 76.109375 75.90625 L 92.109375 75.90625 L 92.109375 94.90625 L 76.109375 94.90625 Z M 76.109375 75.90625 "/>
<g style="fill:rgb(0%,80%,0%);fill-opacity:1;">
  <use xlink:href="#glyph0-1" x="76.109375" y="90.757812"/>
  <use xlink:href="#glyph0-2" x="87.28125" y="90.757812"/>
</g>
<path style=" stroke:none;fill-rule:nonzero;fill:rgb(100%,100%,100%);fill-opacity:1;" d="M 141.101562 75.15625 L 157.101562 75.15625 L 157.101562 94.15625 L 141.101562 94.15625 Z M 141.101562 75.15625 "/>
<g style="fill:rgb(0%,80%,0%);fill-opacity:1;">
  <use xlink:href="#glyph0-1" x="141.101562" y="90.007812"/>
  <use xlink:href="#glyph0-2" x="152.273438" y="90.007812"/>
</g>
<path style="fill:none;stroke-width:1.2;stroke-linecap:butt;stroke-linejoin:miter;stroke:rgb(0%,0%,0%);stroke-opacity:1;stroke-miterlimit:10;" d="M 197.085938 115.75 L 216.160156 117.109375 "/>
<path style="fill:none;stroke-width:1.2;stroke-linecap:butt;stroke-linejoin:miter;stroke:rgb(0%,80%,0%);stroke-opacity:1;stroke-miterlimit:10;" d="M 216.160156 117.109375 L 235.238281 118.464844 "/>
<path style=" stroke:none;fill-rule:nonzero;fill:rgb(100%,100%,100%);fill-opacity:1;" d="M 227.238281 108.964844 L 243.238281 108.964844 L 243.238281 127.964844 L 227.238281 127.964844 Z M 227.238281 108.964844 "/>
<g style="fill:rgb(0%,80%,0%);fill-opacity:1;">
  <use xlink:href="#glyph0-1" x="227.238281" y="123.816406"/>
  <use xlink:href="#glyph0-2" x="238.410156" y="123.816406"/>
</g>
<path style="fill:none;stroke-width:1.2;stroke-linecap:butt;stroke-linejoin:miter;stroke:rgb(0%,0%,0%);stroke-opacity:1;stroke-miterlimit:10;" d="M 209.40625 165.433594 L 225.636719 155.320312 "/>
<path style="fill:none;stroke-width:1.2;stroke-linecap:butt;stroke-linejoin:miter;stroke:rgb(0%,80%,0%);stroke-opacity:1;stroke-miterlimit:10;" d="M 225.636719 155.320312 L 241.867188 145.203125 "/>
<path style=" stroke:none;fill-rule:nonzero;fill:rgb(100%,100%,100%);fill-opacity:1;" d="M 233.867188 135.703125 L 249.867188 135.703125 L 249.867188 154.703125 L 233.867188 154.703125 Z M 233.867188 135.703125 "/>
<g style="fill:rgb(0%,80%,0%);fill-opacity:1;">
  <use xlink:href="#glyph0-1" x="233.867188" y="150.554688"/>
  <use xlink:href="#glyph0-2" x="245.039062" y="150.554688"/>
</g>
</g>
</svg>

<svg xmlns="http://www.w3.org/2000/svg" xmlns:xlink="http://www.w3.org/1999/xlink" width="300pt" height="300pt" viewBox="0 0 300 300"><defs><symbol overflow="visible"><path d="M.797 2.828v-14.11h8V2.83zm.906-.89h6.203v-12.33H1.703zm0 0"/></symbol><symbol overflow="visible" id="a"><path d="M10.313-10.766v1.657c-.532-.488-1.102-.85-1.704-1.093-.606-.25-1.247-.375-1.922-.375-1.336 0-2.356.406-3.063 1.22-.71.81-1.063 1.99-1.063 3.53 0 1.543.352 2.72 1.063 3.53.707.814 1.727 1.22 3.063 1.22.675 0 1.316-.117 1.92-.36.603-.25 1.173-.617 1.704-1.11v1.642c-.554.375-1.14.664-1.765.86-.617.187-1.266.28-1.953.28-1.762 0-3.153-.54-4.172-1.625C1.41-2.474.906-3.954.906-5.83c0-1.875.504-3.348 1.516-4.422 1.02-1.082 2.41-1.625 4.172-1.625.695 0 1.35.094 1.968.28.626.18 1.208.454 1.75.83zm0 0"/></symbol><symbol overflow="visible" id="b"><path d="M1.516-12.156h1.437V0H1.516zm0 0"/></symbol></defs><g><path fill="#fff" d="M0 0h300v300H0z"/><path d="M185.328 212.965L165.102 180.5M177.69 217.723l-20.23-32.46M161.28 182.88l14.376-35.446M123.13 180.164l38.15 2.715M175.656 147.434l-29.27-24.625M175.656 147.434l21.43-31.684M175.656 147.434l33.75 18M146.387 122.81l-38.157-2.716M146.387 122.81l1.355-19.076" stroke-width="1.2" stroke="#000" stroke-miterlimit="10" fill="none"/><path d="M147.742 103.734l1.36-19.078" stroke-width="1.2" stroke="#0c0" stroke-miterlimit="10" fill="none"/><path d="M113.922 143.04l32.465-20.23M108.23 120.094L93.86 155.54M108.23 120.094l-8.058-17.344" stroke-width="1.2" stroke="#000" stroke-miterlimit="10" fill="none"/><path d="M100.172 102.75L92.11 85.406" stroke-width="1.2" stroke="#0c0" stroke-miterlimit="10" fill="none"/><path d="M93.86 155.54l29.27 24.624M93.86 155.54l-17.864 6.83" stroke-width="1.2" stroke="#000" stroke-miterlimit="10" fill="none"/><path d="M75.996 162.37l-17.863 6.833" stroke-width="1.2" stroke="#0c0" stroke-miterlimit="10" fill="none"/><path d="M123.13 180.164l-9.208-37.125M123.13 180.164l-12.314 14.633" stroke-width="1.2" stroke="#000" stroke-miterlimit="10" fill="none"/><path d="M110.816 194.797l-12.312 14.637" stroke-width="1.2" stroke="#0c0" stroke-miterlimit="10" fill="none"/><path d="M113.922 143.04l-19.12-.36" stroke-width="1.2" stroke="#000" stroke-miterlimit="10" fill="none"/><path d="M94.8 142.68l-19.12-.36" stroke-width="1.2" stroke="#0c0" stroke-miterlimit="10" fill="none"/><path d="M113.922 143.04L99.95 129.98" stroke-width="1.2" stroke="#000" stroke-miterlimit="10" fill="none"/><path d="M99.95 129.98l-13.973-13.062" stroke-width="1.2" stroke="#0c0" stroke-miterlimit="10" fill="none"/><path d="M59.68 132.82h16v19h-16zm0 0" fill="#fff"/><g fill="#0c0"><use xlink:href="#a" x="59.68" y="147.672"/><use xlink:href="#b" x="70.852" y="147.672"/></g><path d="M69.977 107.418h16v19h-16zm0 0" fill="#fff"/><g fill="#0c0"><use xlink:href="#a" x="69.977" y="122.27"/><use xlink:href="#b" x="81.148" y="122.27"/></g><path d="M82.504 199.934h16v19h-16zm0 0" fill="#fff"/><g fill="#0c0"><use xlink:href="#a" x="82.504" y="214.785"/><use xlink:href="#b" x="93.676" y="214.785"/></g><path d="M42.133 159.703h16v19h-16zm0 0" fill="#fff"/><g fill="#0c0"><use xlink:href="#a" x="42.133" y="174.555"/><use xlink:href="#b" x="53.305" y="174.555"/></g><path d="M76.11 75.906h16v19h-16zm0 0" fill="#fff"/><g fill="#0c0"><use xlink:href="#a" x="76.109" y="90.758"/><use xlink:href="#b" x="87.281" y="90.758"/></g><path d="M141.102 75.156h16v19h-16zm0 0" fill="#fff"/><g fill="#0c0"><use xlink:href="#a" x="141.102" y="90.008"/><use xlink:href="#b" x="152.273" y="90.008"/></g><path d="M197.086 115.75l19.074 1.36" stroke-width="1.2" stroke="#000" stroke-miterlimit="10" fill="none"/><path d="M216.16 117.11l19.078 1.355" stroke-width="1.2" stroke="#0c0" stroke-miterlimit="10" fill="none"/><path d="M227.238 108.965h16v19h-16zm0 0" fill="#fff"/><g fill="#0c0"><use xlink:href="#a" x="227.238" y="123.816"/><use xlink:href="#b" x="238.41" y="123.816"/></g><path d="M209.406 165.434l16.23-10.114" stroke-width="1.2" stroke="#000" stroke-miterlimit="10" fill="none"/><path d="M225.637 155.32l16.23-10.117" stroke-width="1.2" stroke="#0c0" stroke-miterlimit="10" fill="none"/><path d="M233.867 135.703h16v19h-16zm0 0" fill="#fff"/><g fill="#0c0"><use xlink:href="#a" x="233.867" y="150.555"/><use xlink:href="#b" x="245.039" y="150.555"/></g></g></svg>
